assets/img/braze_icons/star-04.svg

<svg fill="none" height="24" viewBox="0 0 24 24" width="24" xmlns="http://www.w3.org/2000/svg"><path d="m12.9333 1.64102c-.1485-.38619-.5195-.64102-.9333-.64102s-.7848.25483-.9333.64102l-2.012 5.23109c-.3004.78104-.3948 1.00611-.52392 1.1877-.12956.18221-.28876.34141-.47097.47097-.18159.12912-.40666.22352-1.18771.52392l-5.23108 2.012c-.38619.1485-.64102.5195-.64102.9333s.25483.7848.64102.9333l5.23109 2.012c.78104.3004 1.00611.3948 1.1877.5239.18221.1296.34141.2888.47097.471.12912.1816.22352.4067.52392 1.1877l2.012 5.2311c.1485.3862.5195.641.9333.641s.7848-.2548.9333-.641l2.012-5.2311c.3004-.781.3948-1.0061.5239-1.1877.1296-.1822.2888-.3414.471-.471.1816-.1291.4067-.2235 1.1877-.5239l5.2311-2.012c.3862-.1485.641-.5195.641-.9333s-.2548-.7848-.641-.9333l-5.2311-2.012c-.781-.3004-1.0061-.3948-1.1877-.52392-.1822-.12956-.3414-.28876-.471-.47097-.1291-.18159-.2235-.40666-.5239-1.1877z" fill="#801ed7"/></svg>

<svg width="24" height="24" viewBox="0 0 24 24" fill="none" xmlns="http://www.w3.org/2000/svg">
<path d="M12.9333 1.64102C12.7848 1.25483 12.4138 1 12 1C11.5862 1 11.2152 1.25483 11.0667 1.64102L9.0547 6.87211C8.7543 7.65315 8.6599 7.87822 8.53078 8.05981C8.40122 8.24202 8.24202 8.40122 8.05981 8.53078C7.87822 8.6599 7.65315 8.7543 6.8721 9.0547L1.64102 11.0667C1.25483 11.2152 1 11.5862 1 12C1 12.4138 1.25483 12.7848 1.64102 12.9333L6.87211 14.9453C7.65315 15.2457 7.87822 15.3401 8.05981 15.4692C8.24202 15.5988 8.40122 15.758 8.53078 15.9402C8.6599 16.1218 8.7543 16.3469 9.0547 17.1279L11.0667 22.359C11.2152 22.7452 11.5862 23 12 23C12.4138 23 12.7848 22.7452 12.9333 22.359L14.9453 17.1279C15.2457 16.3469 15.3401 16.1218 15.4692 15.9402C15.5988 15.758 15.758 15.5988 15.9402 15.4692C16.1218 15.3401 16.3469 15.2457 17.1279 14.9453L22.359 12.9333C22.7452 12.7848 23 12.4138 23 12C23 11.5862 22.7452 11.2152 22.359 11.0667L17.1279 9.0547C16.3469 8.7543 16.1218 8.6599 15.9402 8.53078C15.758 8.40122 15.5988 8.24202 15.4692 8.05981C15.3401 7.87822 15.2457 7.65315 14.9453 6.87211L12.9333 1.64102Z" fill="#801ED7"/>
</svg>
